public/gradients/blue-purple-1.svg

<?xml version="1.0" encoding="UTF-8"?>
<svg fill="none" version="1.1" viewBox="0 0 1265 1210" xmlns="http://www.w3.org/2000/svg"><g filter="url(#b)" opacity=".3"><path d="m464.57 564.68c-6.91 23.829-33.76 35.301-37.92 60.91-0.59 6.89-8.12 19.84-33.51 16.523-24.47 14.225-100.23-13.414-118.73 10.36-13.62 17.502-28.61 39.331-23.32 70.801 4.08 24.264 17.66 48.182 31.42 68.833 19.94 29.913 43.47 57.118 68.89 78.657 82.84 70.216 177.69 88.494 259.77 88.744 100.01 0.31 186.65-38.313 259.58-100.08 30.08-25.473 57.02-54.959 77.73-92.493 19.06-34.557 34.57-73.194 46.54-114.1 15.251-52.071 23.841-110.45 17.451-173.62-4.85-48.042-25.461-93.855-54.001-135.68-39-57.177-91.43-89.642-142.2-93.301-31.32-2.256-66.09 11.311-67.54 53.661-1.1 32.307 13.82 68.616 23.5 101.78 6.46 22.166 15.27 53.559 0.5 65.12-24.98 19.557-59.77 25.174-91.27 29.135-40.24 5.06-83.32-5.829-125.2-8.492-24.12-1.534-43.66 10.295-60.82 24.762-13.79 11.633-24.94 28.041-30.87 48.47z" fill="#FF1CF7" opacity=".5"/></g><g filter="url(#a)" opacity=".3"><path d="m800.03 564.68c6.91 23.829 33.76 35.301 37.92 60.91 0.59 6.89 8.12 19.84 33.51 16.523 24.47 14.225 100.23-13.414 118.73 10.36 13.617 17.502 28.607 39.331 23.317 70.801-4.08 24.264-17.657 48.182-31.417 68.833-19.94 29.913-43.47 57.118-68.89 78.657-82.84 70.216-177.69 88.494-259.77 88.744-100.01 0.31-186.65-38.313-259.58-100.08-30.08-25.473-57.02-54.959-77.73-92.493-19.06-34.557-34.57-73.194-46.54-114.1-15.25-52.071-23.84-110.45-17.45-173.62 4.85-48.042 25.46-93.855 54-135.68 39-57.177 91.43-89.642 142.2-93.301 31.32-2.256 66.09 11.311 67.54 53.661 1.1 32.307-13.82 68.616-23.5 101.78-6.46 22.166-15.27 53.559-0.5 65.12 24.98 19.557 59.77 25.174 91.27 29.135 40.24 5.06 83.32-5.829 125.2-8.492 24.12-1.534 43.66 10.295 60.82 24.762 13.79 11.633 24.94 28.041 30.87 48.47z" fill="#0070F3" opacity=".5"/></g><defs><filter id="b" x="0" y="0" width="1264.6" height="1209.5" color-interpolation-filters="sRGB" filterUnits="userSpaceOnUse"><feFlood flood-opacity="0" result="BackgroundImageFix"/><feBlend in="SourceGraphic" in2="BackgroundImageFix" result="shape"/><feGaussianBlur result="effect1_foregroundBlur_577_931" stdDeviation="125"/></filter><filter id="a" x="0" y="0" width="1264.6" height="1209.5" color-interpolation-filters="sRGB" filterUnits="userSpaceOnUse"><feFlood flood-opacity="0" result="BackgroundImageFix"/><feBlend in="SourceGraphic" in2="BackgroundImageFix" result="shape"/><feGaussianBlur result="effect1_foregroundBlur_577_931" stdDeviation="125"/></filter></defs></svg>

<svg width="1265" height="1210" viewBox="0 0 1265 1210" fill="none" xmlns="http://www.w3.org/2000/svg">
<g opacity="0.3" filter="url(#filter0_f_577_931)">
<path opacity="0.5" d="M464.569 564.678C457.659 588.507 430.809 599.979 426.649 625.588C426.059 632.478 418.529 645.428 393.139 642.111C368.669 656.336 292.909 628.697 274.409 652.471C260.789 669.973 245.799 691.802 251.089 723.272C255.169 747.536 268.749 771.454 282.509 792.105C302.449 822.018 325.979 849.223 351.399 870.762C434.239 940.978 529.089 959.256 611.169 959.506C711.179 959.816 797.819 921.193 870.749 859.425C900.829 833.952 927.769 804.466 948.479 766.932C967.539 732.375 983.049 693.738 995.019 652.834C1010.27 600.763 1018.86 542.381 1012.47 479.216C1007.62 431.174 987.009 385.361 958.469 343.538C919.469 286.361 867.039 253.896 816.269 250.237C784.949 247.981 750.179 261.548 748.729 303.898C747.629 336.205 762.549 372.514 772.229 405.683C778.689 427.849 787.499 459.242 772.729 470.803C747.749 490.36 712.959 495.977 681.459 499.938C641.219 504.998 598.139 494.109 556.259 491.446C532.139 489.912 512.599 501.741 495.439 516.208C481.649 527.841 470.499 544.249 464.569 564.678Z" fill="#FF1CF7"/>
</g>
<g opacity="0.3" filter="url(#filter1_f_577_931)">
<path opacity="0.5" d="M800.033 564.678C806.943 588.507 833.793 599.979 837.953 625.588C838.543 632.478 846.073 645.428 871.463 642.111C895.933 656.336 971.693 628.697 990.193 652.471C1003.81 669.973 1018.8 691.802 1013.51 723.272C1009.43 747.536 995.853 771.454 982.093 792.105C962.153 822.018 938.623 849.223 913.203 870.762C830.363 940.978 735.513 959.256 653.433 959.506C553.423 959.816 466.783 921.193 393.853 859.425C363.773 833.952 336.833 804.466 316.123 766.932C297.063 732.375 281.553 693.738 269.583 652.834C254.333 600.763 245.743 542.381 252.133 479.216C256.983 431.174 277.593 385.361 306.133 343.538C345.133 286.361 397.563 253.896 448.333 250.237C479.653 247.981 514.423 261.548 515.873 303.898C516.973 336.205 502.053 372.514 492.373 405.683C485.913 427.849 477.103 459.242 491.873 470.803C516.853 490.36 551.643 495.977 583.143 499.938C623.383 504.998 666.463 494.109 708.343 491.446C732.463 489.912 752.003 501.741 769.163 516.208C782.953 527.841 794.103 544.249 800.033 564.678Z" fill="#0070F3"/>
</g>
<defs>
<filter id="filter0_f_577_931" x="0" y="0" width="1264.6" height="1209.51" filterUnits="userSpaceOnUse" color-interpolation-filters="sRGB">
<feFlood flood-opacity="0" result="BackgroundImageFix"/>
<feBlend mode="normal" in="SourceGraphic" in2="BackgroundImageFix" result="shape"/>
<feGaussianBlur stdDeviation="125" result="effect1_foregroundBlur_577_931"/>
</filter>
<filter id="filter1_f_577_931" x="0" y="0" width="1264.6" height="1209.51" filterUnits="userSpaceOnUse" color-interpolation-filters="sRGB">
<feFlood flood-opacity="0" result="BackgroundImageFix"/>
<feBlend mode="normal" in="SourceGraphic" in2="BackgroundImageFix" result="shape"/>
<feGaussianBlur stdDeviation="125" result="effect1_foregroundBlur_577_931"/>
</filter>
</defs>
</svg>
